X:5046
T:Farewell to Ireland
M:C
L:1/8
K:A Mixolydian
G,|A,3C E3F|GEDB, G,B,DB,|A,3C E3F|GEDB, EA,A,G,|!
A,3C E3F|GEDB, G,2g2|edeg abaf|gedB eAA:|!
g|a2ab agef|g2ga gedB|eaab agef|gedB eAAg|!
agef gage|dcdB GABd|=cAdB cdef|gedB eAA:|!
g|eAcA eAcA|dcdB GABd|eAcA cdef|gedB eAAg|!
eAcA eAcA|dcdB GABd|cAdB cdef|gedB eAA:|!
^g|aece aece|gdBd gdBd|aece a3f|gedB eAA^g|!
agef gage|dcdB GABd|=cAdB cdef|gedB eAA:|!
